X:39
T:The Maids Of Holywell
R:Reel
S:Connie Connel, Cork and Denis McMahon, Kerry (fiddles)
D:"The Pure Drop"
M:4/4
Z:Bernie Stocks
K:D
A3A ~B2dB | A2FA BE~E2 | A2FA (3Bcd Ad | (3Bcd AG FDDE | 
D2FA d2BA-|A2GF GEEF | ~G3A Bdeg | fedc d3A || 
~d3f edBd | (3efg fe dBAB | ~d3d egfe | (3.d.d.B AG FDDA | 
~d3f edBd | (3efg fe dBAB | defg ~a3g | ~f2eg fedB ||
<end>
<start>
